X:307
T: ACH WAS IST DIE LIEBE FUER EIN SUESSES DING
N: B0364
O: Europa, Mitteleuropa, Deutschland
R: Liebes - Lied, Liebes - Lust
M: 2/4
L: 1/8
K: Eb
 | BAGF | E2E2
FGAF | G4
EEFG | A2G2
GGAB | c2B2
edcB | B2=A2
fedc | c2B2
gfed | fed2
cBc=A | B4
edcB | BAG2
FcBD | E4

